icons/guidance-icons/manoeuvers-sdk/left-roundabout-exit8.svg

<svg width="80" height="80" viewBox="0 0 80 80" fill="none" xmlns="http://www.w3.org/2000/svg">
<path d="M50.55 15.46L52.81 10.37C51.3548 9.55745 49.8243 8.88766 48.24 8.37L46 13.4C44.1747 12.8405 42.279 12.5442 40.37 12.52L39.78 7C38.1008 7.00814 36.4263 7.17893 34.78 7.51L35.39 13C33.5319 13.4147 31.7411 14.0879 30.07 15L26.81 10.51C26.0834 10.9681 25.3824 11.4655 24.71 12C24.034 12.4901 23.3831 13.0141 22.76 13.57L26 18C24.6079 19.3006 23.4031 20.7881 22.42 22.42L17.33 20.16C16.5175 21.6152 15.8477 23.1457 15.33 24.73L20.33 26.98C19.7705 28.8053 19.4742 30.701 19.45 32.61L14 33.22C14.0081 34.8992 14.1789 36.5737 14.51 38.22L20 37.61C20.4147 39.4681 21.0879 41.2589 22 42.93L17.51 46.19C17.9681 46.9166 18.4655 47.6176 19 48.29C19.4888 48.9831 20.0128 49.6506 20.57 50.29L25 47C26.3006 48.3921 27.7881 49.5969 29.42 50.58L27.16 55.67C28.6152 56.4825 30.1457 57.1523 31.73 57.67L33.98 52.67C38.7919 54.2302 44.011 53.9543 48.6317 51.8955C53.2523 49.8368 56.9476 46.1408 59.0054 41.5197C61.0632 36.8986 61.338 31.6794 59.7768 26.8678C58.2156 22.0562 54.9289 17.9926 50.55 15.46ZM40 48.5C36.9344 48.5 33.9376 47.5909 31.3887 45.8878C28.8397 44.1846 26.853 41.7638 25.6799 38.9316C24.5067 36.0993 24.1998 32.9828 24.7978 29.9761C25.3959 26.9694 26.8721 24.2076 29.0398 22.0398C31.2076 19.8721 33.9694 18.3959 36.9761 17.7978C39.9828 17.1998 43.0993 17.5067 45.9316 18.6799C48.7638 19.853 51.1846 21.8397 52.8878 24.3887C54.5909 26.9376 55.5 29.9344 55.5 33C55.4974 37.11 53.8635 41.051 50.9572 43.9572C48.051 46.8635 44.11 48.4974 40 48.5Z" fill="#C3CDDE" fill-opacity="0.35"/>
<path d="M46.4999 37.27C46.4999 40.13 43.9999 42.42 39.8399 42.42C35.6799 42.42 33.3099 40.15 33.3099 37.35C33.3099 35.21 34.5599 33.84 36.6199 32.93C35.8307 32.5658 35.1635 31.9813 34.6987 31.2468C34.2339 30.5123 33.9912 29.6592 33.9999 28.79C33.9999 25.93 36.5999 24.14 39.8999 24.14C43.1999 24.14 45.7999 25.72 45.7999 28.64C45.7999 30.2 44.9199 31.55 42.9399 32.64C45.3499 33.71 46.4999 35.21 46.4999 37.27ZM42.7799 37.27C42.7799 35.74 41.9699 35.04 39.7799 34.27L38.9999 33.94C38.383 34.2238 37.8638 34.6839 37.5079 35.2622C37.152 35.8406 36.9753 36.5114 36.9999 37.19C36.9999 38.75 38.1199 39.71 39.9099 39.71C41.6999 39.71 42.7799 38.67 42.7799 37.24V37.27ZM37.5999 28.87C37.5999 30.23 38.4399 30.87 39.9999 31.5L40.5199 31.68C41.0468 31.4226 41.4884 31.0188 41.7917 30.5168C42.095 30.0149 42.2471 29.4362 42.2299 28.85C42.2576 28.548 42.2162 28.2437 42.1089 27.96C42.0016 27.6763 41.8312 27.4208 41.6105 27.2127C41.3899 27.0046 41.1249 26.8494 40.8355 26.7589C40.546 26.6683 40.2398 26.6448 39.9399 26.69C39.6394 26.6501 39.3339 26.6767 39.0448 26.7679C38.7558 26.8591 38.4903 27.0127 38.2671 27.2177C38.0439 27.4228 37.8684 27.6744 37.7532 27.9547C37.6379 28.235 37.5856 28.5372 37.5999 28.84V28.87ZM48.9999 1L49.3599 7.11L61.9399 6.75L55.3399 13.35C54.6165 14.0962 53.6757 14.5947 52.6521 14.7743C51.6284 14.9539 50.5741 14.8054 49.6399 14.35C47.061 13.0251 44.2356 12.2487 41.3418 12.0695C38.448 11.8903 35.5485 12.3123 32.8258 13.3088C30.1031 14.3054 27.6163 15.855 25.5219 17.8599C23.4276 19.8649 21.7711 22.2818 20.6568 24.9585C19.5425 27.6351 18.9946 30.5135 19.0474 33.4124C19.1003 36.3112 19.7529 39.1677 20.9641 41.802C22.1753 44.4362 23.9188 46.7911 26.0849 48.7183C28.251 50.6456 30.7927 52.1034 33.5499 53C34.5507 53.3263 35.423 53.9602 36.0425 54.8113C36.662 55.6624 36.997 56.6873 36.9999 57.74V80H42.9999V57.74C42.9989 55.4162 42.262 53.1523 40.8949 51.2732C39.5278 49.3941 37.6006 47.9962 35.3899 47.28C33.4209 46.6384 31.606 45.5959 30.0597 44.2184C28.5133 42.8408 27.269 41.158 26.405 39.2758C25.541 37.3937 25.0762 35.3531 25.0397 33.2824C25.0032 31.2118 25.3959 29.156 26.193 27.2446C26.9901 25.3332 28.1744 23.6076 29.6712 22.1764C31.1681 20.7452 32.9451 19.6395 34.8903 18.9289C36.8355 18.2182 38.9068 17.9181 40.9737 18.0474C43.0406 18.1767 45.0584 18.7325 46.8999 19.68C48.9594 20.7415 51.3048 21.1152 53.5922 20.7462C55.8796 20.3773 57.9886 19.2852 59.6099 17.63L66.2099 11.03L65.8499 23.61L71.9999 24V1H48.9999Z" fill="white"/>
</svg>

<svg xmlns="http://www.w3.org/2000/svg" viewBox="0 0 80 80"><path d="M50.55,15.46l2.26-5.09a25.83,25.83,0,0,0-4.57-2L46,13.4a20.08,20.08,0,0,0-5.63-.88L39.78,7a26,26,0,0,0-5,.51L35.39,13a20.36,20.36,0,0,0-5.32,2l-3.26-4.49A23.6,23.6,0,0,0,24.71,12a24.78,24.78,0,0,0-1.95,1.57L26,18a20.59,20.59,0,0,0-3.58,4.42l-5.09-2.26a25.83,25.83,0,0,0-2,4.57l5,2.25a20.08,20.08,0,0,0-.88,5.63L14,33.22a26,26,0,0,0,.51,5L20,37.61a20.36,20.36,0,0,0,2,5.32l-4.49,3.26A23.6,23.6,0,0,0,19,48.29a24.78,24.78,0,0,0,1.57,2L25,47a20.59,20.59,0,0,0,4.42,3.58l-2.26,5.09a25.83,25.83,0,0,0,4.57,2l2.25-5A20.48,20.48,0,0,0,50.55,15.46ZM40,48.5A15.5,15.5,0,1,1,55.5,33,15.51,15.51,0,0,1,40,48.5Z" style="fill:#d1def4;opacity:0.35000000000000003"/><path d="M46.5,37.27c0,2.86-2.5,5.15-6.66,5.15s-6.53-2.27-6.53-5.07c0-2.14,1.25-3.51,3.31-4.42A4.51,4.51,0,0,1,34,28.79c0-2.86,2.6-4.65,5.9-4.65s5.9,1.58,5.9,4.5c0,1.56-.88,2.91-2.86,4C45.35,33.71,46.5,35.21,46.5,37.27Zm-3.72,0c0-1.53-.81-2.23-3-3L39,33.94A3.44,3.44,0,0,0,37,37.19c0,1.56,1.12,2.52,2.91,2.52S42.78,38.67,42.78,37.24Zm-5.18-8.4c0,1.36.84,2,2.4,2.63l.52.18a3.05,3.05,0,0,0,1.71-2.83,2,2,0,0,0-2.29-2.16A2.07,2.07,0,0,0,37.6,28.84ZM49,1l.36,6.11,12.58-.36,0,0-6.6,6.6a4.93,4.93,0,0,1-5.7,1A21,21,0,1,0,33.55,53,5,5,0,0,1,37,57.74V80h6V57.74a11,11,0,0,0-7.61-10.46A15,15,0,1,1,46.9,19.68a10.84,10.84,0,0,0,12.71-2.05l6.6-6.6,0,0-.36,12.58L72,24V1Z" style="fill:#fff"/></svg>
